src/site/assets/img/icons/fa-male-blue.svg

<?xml version="1.0" encoding="UTF-8"?>
<svg width="23px" height="39px" viewBox="0 0 23 39" version="1.1" xmlns="http://www.w3.org/2000/svg" xmlns:xlink="http://www.w3.org/1999/xlink">
    <!-- Generator: Sketch 42 (36781) - http://www.bohemiancoding.com/sketch -->
    <title>blue</title>
    <desc>Created with Sketch.</desc>
    <defs></defs>
    <g id="Page-1" stroke="none" stroke-width="1" fill="none" fill-rule="evenodd">
        <g id="blue" fill="#02BFE7">
            <path d="M0.635153846,25.5857727 C1.03323077,26.0236364 1.54984615,26.2221818 2.14430769,26.2221818 C2.70161538,26.2221818 3.21646154,26.0236364 3.61453846,25.5857727 C4.05153846,25.1869091 4.24969231,24.6710455 4.24969231,24.1126364 L4.24969231,16.3144091 L5.67923077,16.3144091 L5.67923077,36.5678182 C5.67923077,37.2432273 5.91807692,37.8016364 6.394,38.3175 C6.91061538,38.7961364 7.50507692,39.0336818 8.18092308,39.0336818 C8.85676923,39.0336818 9.41230769,38.7961364 9.92892308,38.3175 C10.4048462,37.8016364 10.6436923,37.2432273 10.6436923,36.5270455 L10.6436923,26.2221818 L12.0732308,26.2221818 L12.0732308,36.5270455 C12.0732308,37.2432273 12.3120769,37.8016364 12.788,38.3175 C13.3046154,38.7961364 13.8601538,39.0336818 14.5342308,39.0336818 C15.2100769,39.0336818 15.8063077,38.7961364 16.3211538,38.3175 C16.7988462,37.8016364 17.0376923,37.2432273 17.0376923,36.5678182 L17.0376923,16.3144091 L18.4265385,16.3144091 L18.4265385,24.1126364 C18.4265385,24.6710455 18.6246923,25.1869091 19.0616923,25.5857727 C19.4597692,26.0236364 19.9763846,26.2221818 20.5708462,26.2221818 C21.1263846,26.2221818 21.643,26.0236364 22.0410769,25.5857727 C22.4780769,25.1869091 22.6762308,24.6710455 22.6762308,24.1126364 L22.6762308,14.8820455 C22.6762308,13.6872273 22.2781538,12.6927273 21.4448462,11.8577727 C20.6115385,11.0228182 19.619,10.6239545 18.4265385,10.6239545 L4.24969231,10.6239545 C3.059,10.6239545 2.06646154,11.0228182 1.23138462,11.8577727 C0.398076923,12.6927273 0,13.6872273 0,14.8820455 L0,24.1126364 C0,24.6710455 0.199923077,25.1869091 0.635153846,25.5857727 L0.635153846,25.5857727 Z M11.3584615,9.94677273 C12.7473077,9.94677273 13.8990769,9.46990909 14.8916154,8.47540909 C15.8452308,7.51990909 16.3211538,6.36586364 16.3211538,4.97427273 C16.3211538,3.58090909 15.8452308,2.42686364 14.8916154,1.47313636 C13.8990769,0.476863636 12.7473077,0 11.3584615,0 C9.96784615,0 8.81607692,0.476863636 7.82353846,1.47313636 C6.86992308,2.42686364 6.394,3.58090909 6.394,4.97427273 C6.394,6.36586364 6.86992308,7.51990909 7.82353846,8.47540909 C8.81607692,9.46990909 9.96784615,9.94677273 11.3584615,9.94677273 L11.3584615,9.94677273 Z" id="Fill-19"></path>
        </g>
    </g>
</svg>

<svg xmlns="http://www.w3.org/2000/svg" viewBox="0 0 23 39" width="23px" height="39px"><path d="M.63515 25.58577c.39808.43787.9147.63641 1.50916.63641.5573 0 1.07215-.19854 1.47023-.6364.437-.39887.63515-.91473.63515-1.47314V16.3144h1.42954v20.2534c0 .67542.23885 1.23383.71477 1.74969.51662.47864 1.11108.71618 1.78692.71618.67585 0 1.23139-.23754 1.748-.71618.47593-.51586.71477-1.07427.71477-1.79045V26.22218h1.42954v10.30487c0 .71618.23885 1.27459.71477 1.79045.51662.47864 1.07215.71618 1.74623.71618.67585 0 1.27208-.23754 1.78692-.71618.4777-.51586.71654-1.07427.71654-1.74968V16.3144h1.38885v7.79823c0 .5584.19815 1.07427.63515 1.47313.39808.43787.9147.63641 1.50916.63641.55553 0 1.07215-.19854 1.47023-.6364.437-.39887.63515-.91473.63515-1.47314v-9.2306c0-1.19481-.39808-2.18931-1.23138-3.02427-.83331-.83495-1.82585-1.23382-3.01831-1.23382H4.24969c-1.19069 0-2.18323.39887-3.0183 1.23382C.39807 12.69273 0 13.68723 0 14.88205v9.23059c0 .5584.19992 1.07427.63515 1.47313zm10.72331-15.639c1.38885 0 2.54062-.47686 3.53316-1.47136.95361-.9555 1.42953-2.10955 1.42953-3.50114 0-1.39336-.47592-2.5474-1.42953-3.50113C13.89908.47686 12.7473 0 11.35846 0 9.96785 0 8.81608.47686 7.82354 1.47314 6.86992 2.42686 6.394 3.5809 6.394 4.97427c0 1.3916.47592 2.54564 1.42954 3.50114.99254.9945 2.1443 1.47136 3.53492 1.47136z" fill="#02BFE7" fill-rule="evenodd"/></svg>
